X: 24490
T: Lucy Farr's
R: polka
M: 2/4
K: Gmajor
B>A|:GD ED|GD EC|D2 DE/F/|GG AB/A/|
GD ED|GD EC|D2 B>A|1 G2 AB/A/:|2 G2 Bc||
de/d/ cA|BG cA|de/d/ cA|BG ED|de/d/ cA|
[1 BG AB/A/|GE ED|cd/c/ Bc:|
[2 BG AB//c/|dB cA|G2 G2||

